X: 36444
T: Sebastiaan's Fancy
R: reel
M: 4/4
K: Dmajor
|:DA A/A/A BB AF|DE ED ED B,D|FA A/A/A BA B/c/d|eg fd ed BA|
DA A/A/A BB AF|DE F/E/D ED B,D|FG GE Fd AF|1 EG FE2< ~D2A,:|2 EG FE2< ~D2c||
|:d2 cA BA FA|BE ~E2 FD FA|d2 cA BA FA|B/c/d ec2< d2c|
d2 cA BA FA|BE ~E2 FD FA|FG A/G/E Fd AF|1 EG FE2< ~D2c:|2 EG FE2< ~D2E|

